X:7
T:La vacha malha (Corenta de la Val San Martin)
R:Courente
C:Trad. - Simondi
A:Piemont (Italie)
S:Lou Dalfin
D:Gibous bagase e bandi
G:Accordion
%%MIDI program 21 %Accordian
O:Val San Martin
M:2/4
L:1/8
Q:240
K:C
|:[DG,]G,B[DG,]|B[DG,]AD,|A[BD,]c[d/D,/]c/|B[AD,]BG,|GG,[DG,]G,|B[DG,]B[DG,]|AD,A[BD,]|c[d/D,/]c/B[AD,]|GG,B[cG,]|d[d/G,/]d/d[dG,]| \
c[BG,]A[BG,]|cD,[c2e2C,2C,2]|[d3B3G,3G,3][GG,]|B[GG,]B[GG,]|AD,A[BD,]|c[d/D,/]c/B[AD,]|BG,GG,|B[cD,]d[d/G,/]d/|d[dG,]c[BG,]|A[BG,]cD,| \
[e2c2][B2d2]|z[GG,]B[GG,]|B[GG,]AD,|A[BD,]c[d/D,/]c/|3B[AD,]GG,:| \
Z:Transcrit par Alex avec l'aide de TablEdit http://www.tabledit.com/
